TV/Source/Front Runner - Dark.svg

<svg height="154.73885pt" viewBox="0 0 151.3872 154.73885" width="151.38719pt" xmlns="http://www.w3.org/2000/svg"><path d="m27.29979.18h57.179584l-5.279963 29.69978h-24.419821l-8.15994 45.599662h24.41982l-5.27996 29.999778h-24.41982l-8.75993 49.25963h-32.57976z" fill="#1a2d33"/><path d="m95.459292 0c8.159948 0 16.379888.42 24.419828 1.91999 5.87995 1.13999 11.69991 2.87998 16.85987 5.87996 3.95997 2.27998 7.43995 5.39996 9.83992 9.23993 2.87998 4.55996 4.19997 9.89993 4.61997 15.17989.48 6.059951 0 12.119906-.95999 18.119862-.66 4.379967-1.43999 8.819934-2.75998 13.139902-1.25999 4.07997-2.87998 8.039941-4.97997 11.819915-3.89997 7.079948-9.47992 13.319895-16.13988 17.939866-3.65997 2.519977-7.67994 4.679962-11.99991 6.059955 8.97979 18.47993 17.95978 36.95976 26.9398 55.43958h-40.55969l-23.039841-49.55963 5.279962-29.759771c3.77997 0 7.559948 0 11.279918-.599999 4.979963-.719995 9.959931-2.399982 13.859901-5.639958 3.77997-3.059977 6.35995-7.439945 7.67995-12.119911.95999-3.179976 1.49998-6.539951 1.73998-9.839926.18-3.359976 0-6.83995-1.49999-9.899928-1.07999-2.099984-2.87998-3.839967-4.97996-4.859967-2.99998-1.55998-6.41995-2.03998-9.77993-2.33998-3.719973-.24-7.499951-.24-11.219921-.42z" fill="#176b61"/></svg>

<?xml version="1.0" encoding="UTF-8" standalone="no"?>
<svg
   xmlns:dc="http://purl.org/dc/elements/1.1/"
   xmlns:cc="http://creativecommons.org/ns#"
   xmlns:rdf="http://www.w3.org/1999/02/22-rdf-syntax-ns#"
   xmlns:svg="http://www.w3.org/2000/svg"
   xmlns="http://www.w3.org/2000/svg"
   xmlns:sodipodi="http://sodipodi.sourceforge.net/DTD/sodipodi-0.dtd"
   xmlns:inkscape="http://www.inkscape.org/namespaces/inkscape"
   width="151.38719pt"
   height="154.73885pt"
   viewBox="0 0 151.3872 154.73885"
   version="1.1"
   id="svg12"
   sodipodi:docname="Front Runner - Dark.svg"
   inkscape:version="0.92.0 r15299">
  <metadata
     id="metadata18">
    <rdf:RDF>
      <cc:Work
         rdf:about="">
        <dc:format>image/svg+xml</dc:format>
        <dc:type
           rdf:resource="http://purl.org/dc/dcmitype/StillImage" />
        <dc:title></dc:title>
      </cc:Work>
    </rdf:RDF>
  </metadata>
  <defs
     id="defs16">
    <pattern
       y="0"
       x="0"
       height="6"
       width="6"
       patternUnits="userSpaceOnUse"
       id="EMFhbasepattern" />
  </defs>
  <sodipodi:namedview
     pagecolor="#ffffff"
     bordercolor="#666666"
     borderopacity="1"
     objecttolerance="10"
     gridtolerance="10"
     guidetolerance="10"
     inkscape:pageopacity="0"
     inkscape:pageshadow="2"
     inkscape:window-width="1920"
     inkscape:window-height="1017"
     id="namedview14"
     showgrid="false"
     fit-margin-top="0"
     fit-margin-left="0"
     fit-margin-right="0"
     fit-margin-bottom="0"
     inkscape:zoom="2"
     inkscape:cx="121.97876"
     inkscape:cy="56.878851"
     inkscape:window-x="-8"
     inkscape:window-y="-8"
     inkscape:window-maximized="1"
     inkscape:current-layer="svg12" />
  <g
     id="#ffffffff"
     transform="translate(-134.24581,-49.171404)" />
  <path
     id="path4489"
     d="M 27.29979,0.18 H 84.479374 L 79.199411,29.87978 H 54.77959 L 46.61965,75.479442 H 71.03947 L 65.75951,105.47922 H 41.33969 l -8.75993,49.25963 H 0 Z"
     style="fill:#1a2d33;fill-opacity:1;fill-rule:nonzero;stroke:none;stroke-width:0.75"
     inkscape:connector-curvature="0" />
  <path
     sodipodi:nodetypes="ccccccccccccccccccccccc"
     id="path4491"
     d="m 95.459292,0 c 8.159948,0 16.379888,0.42 24.419828,1.91999 5.87995,1.13999 11.69991,2.87998 16.85987,5.87996 3.95997,2.27998 7.43995,5.39996 9.83992,9.23993 2.87998,4.55996 4.19997,9.89993 4.61997,15.17989 0.48,6.059951 0,12.119906 -0.95999,18.119862 -0.66,4.379967 -1.43999,8.819934 -2.75998,13.139902 -1.25999,4.07997 -2.87998,8.039941 -4.97997,11.819915 -3.89997,7.079948 -9.47992,13.319895 -16.13988,17.939866 -3.65997,2.519977 -7.67994,4.679962 -11.99991,6.059955 8.97979,18.47993 17.95978,36.95976 26.9398,55.43958 H 100.73926 L 77.699419,105.17922 82.979381,75.419449 c 3.77997,0 7.559948,0 11.279918,-0.599999 4.979963,-0.719995 9.959931,-2.399982 13.859901,-5.639958 3.77997,-3.059977 6.35995,-7.439945 7.67995,-12.119911 0.95999,-3.179976 1.49998,-6.539951 1.73998,-9.839926 0.18,-3.359976 0,-6.83995 -1.49999,-9.899928 -1.07999,-2.099984 -2.87998,-3.839967 -4.97996,-4.859967 -2.99998,-1.55998 -6.41995,-2.03998 -9.77993,-2.33998 -3.719973,-0.24 -7.499951,-0.24 -11.219921,-0.42 z"
     style="fill:#176b61;fill-opacity:1;fill-rule:nonzero;stroke:none;stroke-width:0.75"
     inkscape:connector-curvature="0" />
</svg>
